X: 35987
T: Sary And Lexy
R: jig
M: 6/8
K: Ddorian
|:~A,3 FED|CA,G, ~A,3|~G,3 FDC|DEF GAc|~A3 dcA|
{c}d2c AGF|1 ECC GCC|FED CA,G,:|2 ECC GCC|FED ~D2 C||
~_B,3 FED|GFE DC_B,|~A,3 FED|CDE FGA|~G3 dGG|
cGG AGF|1 ~E3 AGE|FED EDC:|2 ~E3 AGE|FED D2z||

